assets/icon-serving-dish.svg

<svg
  class="icon icon-accordion icon-serving-dish"

  focusable="false"
  xmlns="http://www.w3.org/2000/svg"


  viewBox="0 0 20 20"
>
  <path d="M10 7.22864C5.83597 7.22864 2.44179 10.6819 2.44179 14.9649C2.44179 15.241 2.21794 15.4649 1.94179 15.4649C1.66565 15.4649 1.44179 15.241 1.44179 14.9649C1.44179 10.1503 5.2632 6.22864 10 6.22864C14.7369 6.22864 18.5583 10.1503 18.5583 14.9649C18.5583 15.241 18.3344 15.4649 18.0583 15.4649C17.7821 15.4649 17.5583 15.241 17.5583 14.9649C17.5583 10.6819 14.1641 7.22864 10 7.22864Z" />
  <path d="M0.473022 14.9867C0.473022 14.7106 0.69688 14.4867 0.973022 14.4867H19.027C19.3032 14.4867 19.527 14.7106 19.527 14.9867C19.527 15.2628 19.3032 15.4867 19.027 15.4867H0.973022C0.69688 15.4867 0.473022 15.2628 0.473022 14.9867Z" />
  <path d="M6.09332 9.9023C6.15244 10.0271 6.09921 10.1761 5.97443 10.2353C5.51339 10.4537 4.52514 11.2638 4.43389 12.6935C4.4251 12.8313 4.30627 12.9358 4.16847 12.927C4.03068 12.9183 3.92611 12.7994 3.93491 12.6616C4.04068 11.0045 5.18149 10.0577 5.76036 9.78341C5.88513 9.72429 6.03421 9.77752 6.09332 9.9023Z" />
  <path d="M10.4906 5.04834H9.5095C8.95722 5.04834 8.5095 5.49605 8.5095 6.04834V6.1947H11.4906V6.04834C11.4906 5.49606 11.0429 5.04834 10.4906 5.04834ZM9.5095 4.04834C8.40493 4.04834 7.5095 4.94377 7.5095 6.04834V7.1947H12.4906V6.04834C12.4906 4.94377 11.5952 4.04834 10.4906 4.04834H9.5095Z" fill-rule="evenodd" />
</svg>

<svg xmlns="http://www.w3.org/2000/svg" class="icon icon-accordion icon-serving-dish" viewBox="0 0 20 20"><path d="M10 7.229c-4.164 0-7.558 3.453-7.558 7.736a.5.5 0 0 1-1 0c0-4.815 3.821-8.736 8.558-8.736s8.558 3.921 8.558 8.736a.5.5 0 0 1-1 0c0-4.283-3.394-7.736-7.558-7.736"/><path d="M.473 14.987a.5.5 0 0 1 .5-.5h18.054a.5.5 0 1 1 0 1H.973a.5.5 0 0 1-.5-.5M6.093 9.902a.25.25 0 0 1-.119.333c-.46.219-1.449 1.029-1.54 2.459a.25.25 0 1 1-.5-.032c.107-1.658 1.247-2.604 1.826-2.879a.25.25 0 0 1 .333.12"/><path fill-rule="evenodd" d="M10.49 5.048h-.98a1 1 0 0 0-1 1v.147h2.98v-.147a1 1 0 0 0-1-1m-.98-1a2 2 0 0 0-2 2v1.147h4.98V6.048a2 2 0 0 0-2-2z"/></svg>
